X:0442
T:The Cudgell.
M:9/8
L:1/8
Q:3/8=120
I: :: ||
Z:Jack Campin * www.campin.me.uk * 2009
K:G
GBd  gdc    B>AB |GBd  gdB   Tc2B/A/|GBd  g>ag/f/ gdB|c>dc  A=FA  Tc2A::
ded TB.G.G TB.G.G|ded TB.G.G Tc2A   |ded TBGG    TBGB|cdc  (A=F)A Tc2A |
ded TBGG   TBGG  |ded TBGB    c2B/A/|GBd  g>ag/f/ gdB|cdc  TA=FA   c2A|]

